X: 305727
M: 6/8
L: 1/8
K: C
[cG] |\
c2e f2a | g2a gec | c2e f2a | gec d2e |\
c2e f2a | g2a gec | cBA GAB | cde "^D.C."d2 |]


